src/icons/solid/symbols/library.svg

<svg width="24" height="24" viewBox="0 0 24 24" fill="none" xmlns="http://www.w3.org/2000/svg">
<g clip-path="url(#clip0_4704_423)">
<path d="M22.5303 17.0376C22.7801 17.0377 22.9902 17.2485 22.9902 17.4986H23V18.4185C23 19.6789 21.9803 20.7095 20.7109 20.7095V22.0796C20.7109 22.5898 20.3008 22.9995 19.791 22.9995C19.2815 22.9993 18.8721 22.5897 18.8721 22.0796V20.9292C18.872 20.7992 18.7715 20.6988 18.6416 20.6988H5.3584C5.22848 20.6988 5.12796 20.7992 5.12793 20.9292V22.0796C5.12793 22.5897 4.71855 22.9993 4.20898 22.9995C3.69922 22.9995 3.28906 22.5898 3.28906 22.0796V20.7095C2.02966 20.7095 1.00004 19.6789 1 18.4185V17.4986C1 17.2485 1.21007 17.0376 1.45996 17.0376H22.5303Z" fill="#3C3B44"/>
<path d="M6.27734 1.00247C6.78704 1.00247 7.19715 1.41231 7.19727 1.92239V15.6675C7.19723 15.9176 6.98717 16.1275 6.7373 16.1275H3.06934C2.81947 16.1275 2.60941 15.9176 2.60938 15.6675V1.92239C2.60949 1.41231 3.0196 1.00247 3.5293 1.00247H6.27734Z" fill="#3C3B44"/>
<path d="M12.6846 1.00247C13.1943 1.00247 13.6044 1.41231 13.6045 1.92239V15.6675C13.6045 15.9176 13.3944 16.1275 13.1445 16.1275H9.47656C9.2267 16.1275 9.01663 15.9176 9.0166 15.6675V1.92239C9.01671 1.41231 9.42683 1.00247 9.93652 1.00247H12.6846Z" fill="#3C3B44"/>
<path d="M18.1221 1.01224C18.6019 0.93221 19.0722 1.25253 19.1621 1.74271L21.6309 14.937C21.6708 15.1771 21.5104 15.4075 21.2705 15.4576L17.7529 16.1177H17.7422C17.5024 16.1575 17.2724 15.9973 17.2324 15.7574L14.7539 2.55325C14.674 2.07313 14.9937 1.60234 15.4834 1.51224L18.1221 1.01224Z" fill="#3C3B44"/>
</g>
<defs>
<clipPath id="clip0_4704_423">
<rect width="24" height="24" fill="white"/>
</clipPath>
</defs>
</svg>

<svg xmlns="http://www.w3.org/2000/svg" width="24" height="24" fill="none" viewBox="0 0 24 24"><g clip-path="url(#a)"><path fill="currentColor" d="M22.53 17.038c.25 0 .46.21.46.46H23v.92a2.29 2.29 0 0 1-2.29 2.291v1.37c0 .51-.41.92-.919.92a.917.917 0 0 1-.919-.92v-1.15c0-.13-.1-.23-.23-.23H5.358c-.13 0-.23.1-.23.23v1.15c0 .51-.41.92-.919.92s-.92-.41-.92-.92v-1.37A2.296 2.296 0 0 1 1 18.42v-.92c0-.25.21-.461.46-.461zM6.277 1.002c.51 0 .92.41.92.92v13.746c0 .25-.21.46-.46.46H3.07c-.25 0-.46-.21-.46-.46V1.922c0-.51.41-.92.92-.92zm6.408 0c.51 0 .92.41.92.92v13.746c0 .25-.21.46-.46.46H9.477c-.25 0-.46-.21-.46-.46V1.922c0-.51.41-.92.92-.92zm5.437.01c.48-.08.95.24 1.04.73l2.469 13.195c.04.24-.12.47-.36.52l-3.518.66h-.01a.44.44 0 0 1-.51-.36l-2.48-13.204a.91.91 0 0 1 .73-1.04z"/></g><defs><clipPath id="a"><path fill="currentColor" d="M0 0h24v24H0z"/></clipPath></defs></svg>
